static/img/kroki/a603f2a175a60202dc0adb0640b9be8f.svg

<?xml version="1.0" encoding="us-ascii" standalone="no"?><svg xmlns="http://www.w3.org/2000/svg" xmlns:xlink="http://www.w3.org/1999/xlink" contentStyleType="text/css" height="252px" preserveAspectRatio="none" style="width:339px;height:252px;" version="1.1" viewBox="0 0 339 252" width="339px" zoomAndPan="magnify"><defs/><g><!--class digitalocean_domain--><g id="elem_digitalocean_domain"><rect codeLine="22" fill="#3D176E" height="39.7891" id="digitalocean_domain" rx="2.5" ry="2.5" style="stroke:#000D19;stroke-width:0.5;" width="215" x="7" y="106.79"/><ellipse cx="22" cy="126.6845" fill="#ADD1B2" rx="11" ry="11" style="stroke:#181818;stroke-width:1.0;"/><path d="M24.9688,132.3252 Q24.3906,132.622 23.75,132.7627 Q23.1094,132.9189 22.4063,132.9189 Q19.9063,132.9189 18.5781,131.2783 Q17.2656,129.622 17.2656,126.497 Q17.2656,123.372 18.5781,121.7158 Q19.9063,120.0595 22.4063,120.0595 Q23.1094,120.0595 23.75,120.2158 Q24.4063,120.372 24.9688,120.6689 L24.9688,123.3877 Q24.3438,122.8095 23.75,122.5439 Q23.1563,122.2627 22.5313,122.2627 Q21.1875,122.2627 20.5,123.3408 Q19.8125,124.4033 19.8125,126.497 Q19.8125,128.5908 20.5,129.6689 Q21.1875,130.7314 22.5313,130.7314 Q23.1563,130.7314 23.75,130.4658 Q24.3438,130.1845 24.9688,129.6064 L24.9688,132.3252 Z " fill="#000000"/><text fill="#D9B8FF" font-family="Helvetica" font-size="17" lengthAdjust="spacing" textLength="173" x="41" y="132.5698">digitalocean_domain</text></g><!--class digitalocean_domain_record--><g id="elem_digitalocean_domain_record"><rect codeLine="24" fill="#3D176E" height="39.7891" id="digitalocean_domain_record" rx="2.5" ry="2.5" style="stroke:#000D19;stroke-width:0.5;" width="276" x="56.5" y="206.58"/><ellipse cx="71.5" cy="226.4745" fill="#ADD1B2" rx="11" ry="11" style="stroke:#181818;stroke-width:1.0;"/><path d="M74.4688,232.1152 Q73.8906,232.412 73.25,232.5527 Q72.6094,232.7089 71.9063,232.7089 Q69.4063,232.7089 68.0781,231.0683 Q66.7656,229.412 66.7656,226.287 Q66.7656,223.162 68.0781,221.5058 Q69.4063,219.8495 71.9063,219.8495 Q72.6094,219.8495 73.25,220.0058 Q73.9063,220.162 74.4688,220.4589 L74.4688,223.1777 Q73.8438,222.5995 73.25,222.3339 Q72.6563,222.0527 72.0313,222.0527 Q70.6875,222.0527 70,223.1308 Q69.3125,224.1933 69.3125,226.287 Q69.3125,228.3808 70,229.4589 Q70.6875,230.5214 72.0313,230.5214 Q72.6563,230.5214 73.25,230.2558 Q73.8438,229.9745 74.4688,229.3964 L74.4688,232.1152 Z " fill="#000000"/><text fill="#D9B8FF" font-family="Helvetica" font-size="17" lengthAdjust="spacing" textLength="234" x="90.5" y="232.3598">digitalocean_domain_record</text></g><!--class digitalocean_team--><g id="elem_digitalocean_team"><rect codeLine="26" fill="#3D176E" height="39.7891" id="digitalocean_team" rx="2.5" ry="2.5" style="stroke:#000D19;stroke-width:0.5;" width="196" x="96.5" y="7"/><ellipse cx="111.5" cy="26.8945" fill="#ADD1B2" rx="11" ry="11" style="stroke:#181818;stroke-width:1.0;"/><path d="M114.4688,32.5352 Q113.8906,32.832 113.25,32.9727 Q112.6094,33.1289 111.9063,33.1289 Q109.4063,33.1289 108.0781,31.4883 Q106.7656,29.832 106.7656,26.707 Q106.7656,23.582 108.0781,21.9258 Q109.4063,20.2695 111.9063,20.2695 Q112.6094,20.2695 113.25,20.4258 Q113.9063,20.582 114.4688,20.8789 L114.4688,23.5977 Q113.8438,23.0195 113.25,22.7539 Q112.6563,22.4727 112.0313,22.4727 Q110.6875,22.4727 110,23.5508 Q109.3125,24.6133 109.3125,26.707 Q109.3125,28.8008 110,29.8789 Q110.6875,30.9414 112.0313,30.9414 Q112.6563,30.9414 113.25,30.6758 Q113.8438,30.3945 114.4688,29.8164 L114.4688,32.5352 Z " fill="#000000"/><text fill="#D9B8FF" font-family="Helvetica" font-size="17" lengthAdjust="spacing" textLength="154" x="130.5" y="32.7798">digitalocean_team</text></g><!--link digitalocean_domain to digitalocean_domain_record--><g id="link_digitalocean_domain_digitalocean_domain_record"><path codeLine="28" d="M130.31,147.01 C143.13,162.68 161.26,184.84 174.98,201.62 " fill="none" id="digitalocean_domain-to-digitalocean_domain_record" style="stroke:#1A83AF;stroke-width:2.0;"/><polygon fill="#1A83AF" points="178.73,205.2,176.142,195.6973,175.57,201.3251,169.9422,200.7532,178.73,205.2" style="stroke:#1A83AF;stroke-width:2.0;"/></g><!--link digitalocean_team to digitalocean_domain--><g id="link_digitalocean_team_digitalocean_domain"><path codeLine="29" d="M178.69,47.22 C165.87,62.89 147.74,85.05 134.02,101.83 " fill="none" id="digitalocean_team-to-digitalocean_domain" style="stroke:#1A83AF;stroke-width:2.0;"/><polygon fill="#1A83AF" points="130.27,105.41,139.0578,100.9632,133.43,101.5351,132.858,95.9073,130.27,105.41" style="stroke:#1A83AF;stroke-width:2.0;"/></g><!--link digitalocean_team to digitalocean_domain_record--><g id="link_digitalocean_team_digitalocean_domain_record"><path codeLine="30" d="M209.24,47.07 C219.98,62.32 233.64,84.69 239.5,106.79 C244.03,123.89 244.03,129.49 239.5,146.58 C234.24,166.44 222.68,186.51 212.59,201.45 " fill="none" id="digitalocean_team-to-digitalocean_domain_record" style="stroke:#1A83AF;stroke-width:2.0;"/><polygon fill="#1A83AF" points="209.24,205.31,217.6349,200.1597,212.0726,201.1898,211.0426,195.6275,209.24,205.31" style="stroke:#1A83AF;stroke-width:2.0;"/></g><!--SRC=[dP11IyD048Nl-HKBEHSQYxQz2B5Gz5B4UXCfa-niiYJP3RDJInN_kusjiYPD0rxdVVFUcycrH85LpNjHOPKWkS0LsjH0K8cOoEuMjhGaGgL0JQPjSMaD3m8hg53SO_c6h5De4y-vJWk3peahJxg3jCZ8ReqysZE1SGS93NlKeWJdOcRIoPRHAoFdoKofDjas3ISocjvW1xCaaKx8U3oMqRoD34PTlFkNMEjt597_j9LbxDJiH7nJ5risX5UoS-YFtjln4QJK9XFNtkpfs8aCqf_vEWTfTmsje7H-Z6CajBolST6v2kSpgQPduOS-E6q-9wJED4DfKmIpaRO2RSH7yDclRWZJmxlw8CP3UgETCnwzX54ycyJBrz7j1U-WwpYq-O-LKzWN]--></g></svg>

<svg xmlns="http://www.w3.org/2000/svg" width="339" height="252" preserveAspectRatio="none" style="width:339px;height:252px"><rect width="215" height="39.789" x="7" y="106.79" fill="#3D176E" rx="2.5" ry="2.5" style="stroke:#000d19;stroke-width:.5"/><circle cx="22" cy="126.684" r="11" fill="#ADD1B2" style="stroke:#181818;stroke-width:1"/><path d="M24.969 132.325q-.578.297-1.219.438-.64.156-1.344.156-2.5 0-3.828-1.64-1.312-1.657-1.312-4.782t1.312-4.781q1.328-1.656 3.828-1.656.703 0 1.344.156.656.156 1.219.453v2.719q-.625-.579-1.219-.844-.594-.281-1.219-.281-1.343 0-2.031 1.078-.688 1.062-.688 3.156 0 2.094.688 3.172.688 1.062 2.031 1.062.625 0 1.219-.265.594-.281 1.219-.86v2.72Z"/><text x="41" y="132.57" fill="#D9B8FF" font-family="Helvetica" font-size="17" textLength="173">digitalocean_domain</text><rect width="276" height="39.789" x="56.5" y="206.58" fill="#3D176E" rx="2.5" ry="2.5" style="stroke:#000d19;stroke-width:.5"/><circle cx="71.5" cy="226.475" r="11" fill="#ADD1B2" style="stroke:#181818;stroke-width:1"/><path d="M74.469 232.115q-.578.297-1.219.438-.64.156-1.344.156-2.5 0-3.828-1.64-1.312-1.657-1.312-4.782t1.312-4.781q1.328-1.656 3.828-1.656.703 0 1.344.156.656.156 1.219.453v2.719q-.625-.578-1.219-.844-.594-.281-1.219-.281-1.344 0-2.031 1.078-.688 1.062-.688 3.156 0 2.094.688 3.172.688 1.062 2.031 1.062.625 0 1.219-.265.594-.281 1.219-.86v2.72Z"/><text x="90.5" y="232.36" fill="#D9B8FF" font-family="Helvetica" font-size="17" textLength="234">digitalocean_domain_record</text><rect width="196" height="39.789" x="96.5" y="7" fill="#3D176E" rx="2.5" ry="2.5" style="stroke:#000d19;stroke-width:.5"/><circle cx="111.5" cy="26.895" r="11" fill="#ADD1B2" style="stroke:#181818;stroke-width:1"/><path d="M114.469 32.535q-.578.297-1.219.438-.64.156-1.344.156-2.5 0-3.828-1.64-1.312-1.657-1.312-4.782t1.312-4.781q1.328-1.656 3.828-1.656.703 0 1.344.156.656.156 1.219.453v2.719q-.625-.578-1.219-.844-.594-.281-1.219-.281-1.344 0-2.031 1.078-.688 1.062-.688 3.156 0 2.094.688 3.172.688 1.062 2.031 1.062.625 0 1.219-.265.594-.281 1.219-.86v2.72Z"/><text x="130.5" y="32.78" fill="#D9B8FF" font-family="Helvetica" font-size="17" textLength="154">digitalocean_team</text><path fill="none" d="M130.31 147.01c12.82 15.67 30.95 37.83 44.67 54.61" style="stroke:#1a83af;stroke-width:2"/><path fill="#1A83AF" d="m178.73 205.2-2.588-9.503-.572 5.628-5.628-.572 8.788 4.447z" style="stroke:#1a83af;stroke-width:2"/><path fill="none" d="M178.69 47.22c-12.82 15.67-30.95 37.83-44.67 54.61" style="stroke:#1a83af;stroke-width:2"/><path fill="#1A83AF" d="m130.27 105.41 8.788-4.447-5.628.572-.572-5.628-2.588 9.503z" style="stroke:#1a83af;stroke-width:2"/><path fill="none" d="M209.24 47.07c10.74 15.25 24.4 37.62 30.26 59.72 4.53 17.1 4.53 22.7 0 39.79-5.26 19.86-16.82 39.93-26.91 54.87" style="stroke:#1a83af;stroke-width:2"/><path fill="#1A83AF" d="m209.24 205.31 8.395-5.15-5.562 1.03-1.03-5.563-1.803 9.683z" style="stroke:#1a83af;stroke-width:2"/></svg>
